X: 1
T: Caught In The Middle
Z: Phantom Button
S: https://thesession.org/tunes/3574#setting3574
R: reel
M: 4/4
L: 1/8
K: Dmaj
de|:fa~a2 gecA | defd AGFA | G2ed cABc | defg e2de |!
fa~a2 gecA | defd AGFA | G2ed cABc |1 dBAF D2ge :|2 dBAF D2AG ||!
|:FA~A2 GBdB | ceAc dBAG |FA~A2 GBdf | gefd ecAG |!
FA~A2 GBdB | ceAc defg | af~f2 gecA |1 dBAF D2AG :|2 dBAF D2 ||!
